source/img/404/image-element-3.svg

<svg width="52" height="51" viewBox="0 0 52 51" fill="none" xmlns="http://www.w3.org/2000/svg">
<g filter="url(#filter0_i)">
<path fill-rule="evenodd" clip-rule="evenodd" d="M22 1C22 0.447715 22.4477 0 23 0H29C29.5523 0 30 0.447715 30 1V6.52175C32.3488 7.07655 34.5334 8.05609 36.4684 9.37482L40.4958 5.34745C40.8863 4.95693 41.5195 4.95693 41.91 5.34745L46.1527 9.59009C46.5432 9.98062 46.5432 10.6138 46.1527 11.0043L42.021 15.136C43.229 17.0575 44.111 19.2047 44.5895 21.5H50.5C51.0523 21.5 51.5 21.9477 51.5 22.5V28.5C51.5 29.0523 51.0523 29.5 50.5 29.5H44.5895C44.111 31.7953 43.229 33.9424 42.021 35.864L46.1527 39.9957C46.5432 40.3862 46.5432 41.0194 46.1527 41.4099L41.91 45.6525C41.5195 46.0431 40.8863 46.0431 40.4958 45.6525L36.4684 41.6252C34.5334 42.9439 32.3488 43.9234 30 44.4782V50C30 50.5523 29.5523 51 29 51H23C22.4477 51 22 50.5523 22 50V44.6867C19.5164 44.2366 17.1966 43.3161 15.1362 42.0208L11.5044 45.6525C11.1139 46.0431 10.4807 46.0431 10.0902 45.6525L5.84758 41.4099C5.45705 41.0194 5.45705 40.3862 5.84758 39.9957L9.375 36.4683C7.96318 34.3967 6.94013 32.0389 6.41082 29.5H1.5C0.947715 29.5 0.5 29.0523 0.5 28.5V22.5C0.5 21.9477 0.947715 21.5 1.5 21.5H6.41082C6.94012 18.9611 7.96318 16.6033 9.375 14.5317L5.84758 11.0043C5.45705 10.6138 5.45705 9.98062 5.84758 9.59009L10.0902 5.34745C10.4807 4.95693 11.1139 4.95693 11.5044 5.34745L15.1362 8.97918C17.1966 7.6839 19.5164 6.76339 22 6.31327V1ZM25.5002 35.25C20.1154 35.25 15.7502 30.8848 15.7502 25.5C15.7502 20.1152 20.1154 15.75 25.5002 15.75C30.885 15.75 35.2502 20.1152 35.2502 25.5C35.2502 30.8848 30.885 35.25 25.5002 35.25Z" fill="url(#paint0_linear)"/>
</g>
<defs>
<filter id="filter0_i" x="-1.5" y="-2" width="53" height="53" filterUnits="userSpaceOnUse" color-interpolation-filters="sRGB">
<feFlood flood-opacity="0" result="BackgroundImageFix"/>
<feBlend mode="normal" in="SourceGraphic" in2="BackgroundImageFix" result="shape"/>
<feColorMatrix in="SourceAlpha" type="matrix" values="0 0 0 0 0 0 0 0 0 0 0 0 0 0 0 0 0 0 127 0" result="hardAlpha"/>
<feOffset dx="-2" dy="-2"/>
<feGaussianBlur stdDeviation="2"/>
<feComposite in2="hardAlpha" operator="arithmetic" k2="-1" k3="1"/>
<feColorMatrix type="matrix" values="0 0 0 0 0 0 0 0 0 0 0 0 0 0 0 0 0 0 0.2 0"/>
<feBlend mode="normal" in2="shape" result="effect1_innerShadow"/>
</filter>
<linearGradient id="paint0_linear" x1="26" y1="0" x2="26" y2="51" gradientUnits="userSpaceOnUse">
<stop stop-color="#0A3D76"/>
<stop offset="1" stop-color="#0C53A3"/>
</linearGradient>
</defs>
</svg>

<svg width="52" height="51" fill="none" xmlns="http://www.w3.org/2000/svg"><g filter="url(#filter0_i)"><path fill-rule="evenodd" clip-rule="evenodd" d="M22 1a1 1 0 011-1h6a1 1 0 011 1v5.522a19.4 19.4 0 016.468 2.853l4.028-4.028a1 1 0 011.414 0l4.243 4.243a1 1 0 010 1.414l-4.132 4.132A19.382 19.382 0 0144.59 21.5h5.91a1 1 0 011 1v6a1 1 0 01-1 1h-5.91a19.383 19.383 0 01-2.569 6.364l4.132 4.132a1 1 0 010 1.414l-4.243 4.243a1 1 0 01-1.414 0l-4.028-4.028A19.4 19.4 0 0130 44.478V50a1 1 0 01-1 1h-6a1 1 0 01-1-1v-5.313a19.38 19.38 0 01-6.864-2.666l-3.632 3.632a1 1 0 01-1.414 0L5.848 41.41a1 1 0 010-1.414l3.527-3.528A19.396 19.396 0 016.411 29.5H1.5a1 1 0 01-1-1v-6a1 1 0 011-1h4.91a19.395 19.395 0 012.965-6.968l-3.527-3.528a1 1 0 010-1.414l4.242-4.243a1 1 0 011.414 0l3.632 3.632A19.38 19.38 0 0122 6.313V1zm3.5 34.25c-5.385 0-9.75-4.365-9.75-9.75s4.365-9.75 9.75-9.75 9.75 4.365 9.75 9.75-4.365 9.75-9.75 9.75z" fill="url(#paint0_linear)"/></g><defs><linearGradient id="paint0_linear" x1="26" y1="0" x2="26" y2="51" gradientUnits="userSpaceOnUse"><stop stop-color="#0A3D76"/><stop offset="1" stop-color="#0C53A3"/></linearGradient><filter id="filter0_i" x="-1.5" y="-2" width="53" height="53" filterUnits="userSpaceOnUse" color-interpolation-filters="sRGB"><feFlood flood-opacity="0" result="BackgroundImageFix"/><feBlend in="SourceGraphic" in2="BackgroundImageFix" result="shape"/><feColorMatrix in="SourceAlpha" values="0 0 0 0 0 0 0 0 0 0 0 0 0 0 0 0 0 0 127 0" result="hardAlpha"/><feOffset dx="-2" dy="-2"/><feGaussianBlur stdDeviation="2"/><feComposite in2="hardAlpha" operator="arithmetic" k2="-1" k3="1"/><feColorMatrix values="0 0 0 0 0 0 0 0 0 0 0 0 0 0 0 0 0 0 0.2 0"/><feBlend in2="shape" result="effect1_innerShadow"/></filter></defs></svg>
